X:28
T:Peckhover Walk Hornpipe. Le4.028
B:L.Leadley MS#4 c1850
Z:Village Music Project, 2016 Steve Mansfield
M:C
L:1/8
Q:2/4=75
N:* No triplet marking in Mss
K:D
"*"(3ABc | dcdA GBAG | FGFD GBAG | FEFD GEGE | FEFD E2E2 |
dcdA GBAG | FEFD GBAG | FAdA Bgec | d2f2d2 :|
|: cd | ecAc efge | fdAd fgaf | ecAc efge | edcB A2A2 |
BAGA BcdB | AFDF GBAG | FdcB AGFE | D2F2D2 :|

